TileServer und Tiles/svg/8/54_14.svg

<?xml version='1.0' encoding='UTF-8' standalone='no'?>
<svg viewBox="0 0 497 279" width="497pt" height="279pt" xmlns="http://www.w3.org/2000/svg" xmlns:xlink="http://www.w3.org/1999/xlink">
 <defs overflow="visible" style="stroke:none;">
  <path id="glyph0-4" d="M 2.703125 -3.421875 C 1.878906 -3.421875 1.285156 -3.570312 0.921875 -3.875 C 0.566406 -4.1875 0.390625 -4.6875 0.390625 -5.375 C 0.390625 -5.96875 0.578125 -6.410156 0.953125 -6.703125 C 1.335938 -6.992188 1.921875 -7.140625 2.703125 -7.140625 L 2.703125 -6.453125 C 2.140625 -6.453125 1.738281 -6.363281 1.5 -6.1875 C 1.257812 -6.019531 1.140625 -5.75 1.140625 -5.375 C 1.140625 -5.082031 1.179688 -4.84375 1.265625 -4.65625 C 1.359375 -4.46875 1.519531 -4.328125 1.75 -4.234375 C 1.976562 -4.140625 2.296875 -4.09375 2.703125 -4.09375 Z M 2.703125 -3.421875 "/>
  <path id="glyph0-3" d="M 0.484375 0 L 0.484375 -0.703125 L 5.40625 -0.703125 C 6.101562 -0.703125 6.625 -0.84375 6.96875 -1.125 C 7.3125 -1.414062 7.484375 -1.875 7.484375 -2.5 C 7.484375 -3.03125 7.328125 -3.460938 7.015625 -3.796875 C 6.703125 -4.128906 6.289062 -4.296875 5.78125 -4.296875 L 4.75 -4.296875 L 4.75 -5 L 5.734375 -5 C 6.242188 -5 6.6875 -4.894531 7.0625 -4.6875 C 7.4375 -4.488281 7.726562 -4.203125 7.9375 -3.828125 C 8.15625 -3.453125 8.265625 -3.015625 8.265625 -2.515625 C 8.265625 -0.835938 7.347656 0 5.515625 0 Z M 0.484375 0 "/>
  <path id="glyph0-2" d="M 2.15625 -3.421875 L 2.15625 -4.65625 L 1.90625 -4.65625 C 1.425781 -4.65625 1.050781 -4.757812 0.78125 -4.96875 C 0.519531 -5.1875 0.390625 -5.5 0.390625 -5.90625 C 0.390625 -6.289062 0.519531 -6.59375 0.78125 -6.8125 C 1.050781 -7.03125 1.425781 -7.140625 1.90625 -7.140625 L 2.90625 -7.140625 L 2.90625 -6.453125 L 1.984375 -6.453125 C 1.648438 -6.453125 1.425781 -6.40625 1.3125 -6.3125 C 1.195312 -6.226562 1.140625 -6.09375 1.140625 -5.90625 C 1.140625 -5.71875 1.191406 -5.570312 1.296875 -5.46875 C 1.398438 -5.375 1.628906 -5.328125 1.984375 -5.328125 L 2.90625 -5.328125 L 2.90625 -3.421875 Z M 6.140625 0.125 C 5.378906 0.125 4.800781 -0.0976562 4.40625 -0.546875 C 4.007812 -1.003906 3.8125 -1.671875 3.8125 -2.546875 L 3.8125 -7.140625 L 4.578125 -7.140625 L 4.578125 -4.546875 C 4.804688 -4.710938 5.046875 -4.828125 5.296875 -4.890625 C 5.546875 -4.960938 5.816406 -5 6.109375 -5 C 6.597656 -5 7.015625 -4.890625 7.359375 -4.671875 C 7.710938 -4.460938 7.984375 -4.164062 8.171875 -3.78125 C 8.359375 -3.394531 8.453125 -2.941406 8.453125 -2.421875 C 8.453125 -1.609375 8.25 -0.976562 7.84375 -0.53125 C 7.445312 -0.09375 6.878906 0.125 6.140625 0.125 Z M 6.109375 -0.59375 C 6.609375 -0.59375 6.992188 -0.75 7.265625 -1.0625 C 7.535156 -1.382812 7.671875 -1.820312 7.671875 -2.375 C 7.671875 -2.988281 7.53125 -3.460938 7.25 -3.796875 C 6.96875 -4.128906 6.5625 -4.296875 6.03125 -4.296875 C 5.757812 -4.296875 5.515625 -4.226562 5.296875 -4.09375 C 5.078125 -3.957031 4.898438 -3.769531 4.765625 -3.53125 C 4.640625 -3.300781 4.578125 -3.035156 4.578125 -2.734375 L 4.578125 -2.21875 C 4.578125 -1.914062 4.640625 -1.640625 4.765625 -1.390625 C 4.898438 -1.140625 5.082031 -0.941406 5.3125 -0.796875 C 5.550781 -0.660156 5.816406 -0.59375 6.109375 -0.59375 Z M 6.109375 -0.59375 "/>
  <path id="glyph0-1" d="M 0.484375 0 L 0.484375 -0.09375 L 3.78125 -7.265625 L 3.984375 -7.265625 L 7.28125 -0.09375 L 7.28125 0 Z M 1.625 -0.703125 L 6.125 -0.703125 L 3.875 -5.75 Z M 1.625 -0.703125 "/>
  <path id="glyph0-0" d="M 0.9375 0 L 0.9375 -7.140625 L 5.046875 -7.140625 L 5.046875 0 Z M 1.453125 -0.515625 L 4.546875 -0.515625 L 4.546875 -6.625 L 1.453125 -6.625 Z M 1.453125 -0.515625 "/>
 </defs>
 <image width="497" height="279" xlink:href="svg/8/54_14.jpg"/>
 <g>
  <path style="fill-rule:nonzero;comp-op:darken;fill:rgb(99.215686%,99.215686%,98.823529%);fill-opacity:1;stroke-width:0.5;stroke-linecap:butt;stroke-linejoin:miter;stroke:rgb(25.882353%,25.882353%,21.176471%);stroke-opacity:1;comp-op:darken;stroke-miterlimit:4;" transform="matrix(1,0,0,1,220.721349,92.606385)" d="M 3.751307 1.999084 C 3.751307 2.967834 2.966151 3.749084 2.001307 3.749084 C 1.032557 3.749084 0.251307 2.967834 0.251307 1.999084 C 0.251307 1.03424 1.032557 0.249084 2.001307 0.249084 C 2.966151 0.249084 3.751307 1.03424 3.751307 1.999084 Z M 3.751307 1.999084 "/>
  <path style="fill:none;stroke-width:3;stroke-linecap:butt;stroke-linejoin:round;stroke:rgb(100%,100%,100%);stroke-opacity:0.6;stroke-miterlimit:10;" transform=" rotate(  340 225.056 87.6064) " d="M 204.9375 90.605469 L 204.9375 90.511719 L 208.234375 83.339844 L 208.4375 83.339844 L 211.734375 90.511719 L 211.734375 90.605469 Z M 206.078125 89.902344 L 210.578125 89.902344 L 208.328125 84.855469 Z M 206.078125 89.902344 "/>
  <path style="fill:none;stroke-width:3;stroke-linecap:butt;stroke-linejoin:round;stroke:rgb(100%,100%,100%);stroke-opacity:0.6;stroke-miterlimit:10;" transform=" rotate(  340 225.056 87.6064) " d="M 214.378906 87.183594 L 214.378906 85.949219 L 214.128906 85.949219 C 213.648438 85.949219 213.273438 85.847656 213.003906 85.636719 C 212.742188 85.417969 212.613281 85.105469 212.613281 84.699219 C 212.613281 84.316406 212.742188 84.011719 213.003906 83.792969 C 213.273438 83.574219 213.648438 83.464844 214.128906 83.464844 L 215.128906 83.464844 L 215.128906 84.152344 L 214.207031 84.152344 C 213.871094 84.152344 213.648438 84.199219 213.535156 84.292969 C 213.417969 84.378906 213.363281 84.511719 213.363281 84.699219 C 213.363281 84.886719 213.414062 85.035156 213.519531 85.136719 C 213.621094 85.230469 213.851562 85.277344 214.207031 85.277344 L 215.128906 85.277344 L 215.128906 87.183594 Z M 218.363281 90.730469 C 217.601562 90.730469 217.023438 90.507812 216.628906 90.058594 C 216.230469 89.601562 216.035156 88.933594 216.035156 88.058594 L 216.035156 83.464844 L 216.800781 83.464844 L 216.800781 86.058594 C 217.027344 85.894531 217.269531 85.777344 217.519531 85.714844 C 217.769531 85.644531 218.039062 85.605469 218.332031 85.605469 C 218.820312 85.605469 219.238281 85.714844 219.582031 85.933594 C 219.933594 86.144531 220.207031 86.441406 220.394531 86.824219 C 220.582031 87.210938 220.675781 87.664062 220.675781 88.183594 C 220.675781 88.996094 220.472656 89.628906 220.066406 90.074219 C 219.667969 90.511719 219.101562 90.730469 218.363281 90.730469 Z M 218.332031 90.011719 C 218.832031 90.011719 219.214844 89.855469 219.488281 89.542969 C 219.757812 89.222656 219.894531 88.785156 219.894531 88.230469 C 219.894531 87.617188 219.753906 87.144531 219.472656 86.808594 C 219.191406 86.476562 218.785156 86.308594 218.253906 86.308594 C 217.980469 86.308594 217.738281 86.378906 217.519531 86.511719 C 217.300781 86.648438 217.121094 86.835938 216.988281 87.074219 C 216.863281 87.304688 216.800781 87.570312 216.800781 87.871094 L 216.800781 88.386719 C 216.800781 88.691406 216.863281 88.964844 216.988281 89.214844 C 217.121094 89.464844 217.304688 89.664062 217.535156 89.808594 C 217.773438 89.945312 218.039062 90.011719 218.332031 90.011719 Z M 218.332031 90.011719 "/>
  <path style="fill:none;stroke-width:3;stroke-linecap:butt;stroke-linejoin:round;stroke:rgb(100%,100%,100%);stroke-opacity:0.6;stroke-miterlimit:10;" transform=" rotate(  340 225.056 87.6064) " d="M 221.753906 90.605469 L 221.753906 89.902344 L 226.675781 89.902344 C 227.371094 89.902344 227.894531 89.761719 228.238281 89.480469 C 228.582031 89.191406 228.753906 88.730469 228.753906 88.105469 C 228.753906 87.574219 228.597656 87.144531 228.285156 86.808594 C 227.972656 86.476562 227.558594 86.308594 227.050781 86.308594 L 226.019531 86.308594 L 226.019531 85.605469 L 227.003906 85.605469 C 227.511719 85.605469 227.957031 85.710938 228.332031 85.917969 C 228.707031 86.117188 228.996094 86.402344 229.207031 86.777344 C 229.425781 87.152344 229.535156 87.589844 229.535156 88.089844 C 229.535156 89.769531 228.617188 90.605469 226.785156 90.605469 Z M 221.753906 90.605469 "/>
  <path style="fill:none;stroke-width:3;stroke-linecap:butt;stroke-linejoin:round;stroke:rgb(100%,100%,100%);stroke-opacity:0.6;stroke-miterlimit:10;" transform=" rotate(  340 225.056 87.6064) " d="M 230.605469 90.605469 L 230.605469 90.511719 L 233.902344 83.339844 L 234.105469 83.339844 L 237.402344 90.511719 L 237.402344 90.605469 Z M 231.746094 89.902344 L 236.246094 89.902344 L 233.996094 84.855469 Z M 231.746094 89.902344 "/>
  <path style="fill:none;stroke-width:3;stroke-linecap:butt;stroke-linejoin:round;stroke:rgb(100%,100%,100%);stroke-opacity:0.6;stroke-miterlimit:10;" transform=" rotate(  340 225.056 87.6064) " d="M 240.59375 87.183594 C 239.769531 87.183594 239.175781 87.035156 238.8125 86.730469 C 238.457031 86.417969 238.28125 85.917969 238.28125 85.230469 C 238.28125 84.636719 238.46875 84.195312 238.84375 83.902344 C 239.226562 83.613281 239.8125 83.464844 240.59375 83.464844 L 240.59375 84.152344 C 240.03125 84.152344 239.628906 84.242188 239.390625 84.417969 C 239.148438 84.585938 239.03125 84.855469 239.03125 85.230469 C 239.03125 85.523438 239.070312 85.761719 239.15625 85.949219 C 239.25 86.136719 239.410156 86.277344 239.640625 86.371094 C 239.867188 86.464844 240.1875 86.511719 240.59375 86.511719 Z M 240.59375 87.183594 "/>
  <g style="fill:rgb(13.333333%,13.333333%,13.333333%);fill-opacity:1;" transform=" rotate(  340 225.056 87.6064) ">
   <use xlink:href="#glyph0-1" y="90.606385" x="204.451349"/>
   <use xlink:href="#glyph0-2" y="90.606385" x="212.221349"/>
   <use xlink:href="#glyph0-3" y="90.606385" x="221.271349"/>
   <use xlink:href="#glyph0-1" y="90.606385" x="230.121349"/>
   <use xlink:href="#glyph0-4" y="90.606385" x="237.891349"/>
  </g>
 </g>
</svg>

<svg xmlns="http://www.w3.org/2000/svg" xmlns:xlink="http://www.w3.org/1999/xlink" viewBox="0 0 497 279"> <defs overflow="visible" style="stroke:none">  <path id="d" d="M2.7-3.4c-.8 0-1.4-.2-1.8-.6-.3-.2-.5-.7-.5-1.4 0-.6.2-1 .6-1.3.3-.3 1-.4 1.7-.4v.6c-.6 0-1 .1-1.2.3-.2.2-.4.5-.4.8 0 .4 0 .6.2.7 0 .2.2.4.4.5l1.1.1Zm0 0"/>  <path id="c" d="M.5 0v-.7h5c.5 0 1-.1 1.5-.4.3-.3.5-.9.5-1.4 0-.5-.2-1-.5-1.3-.3-.3-.7-.5-1.2-.5h-1V-5h1c.3 0 .8.1 1.2.3.4.2.7.5.9.9.3.3.4.8.4 1.3C8.3-.8 7.3 0 5.5 0Zm0 0"/>  <path id="b" d="M2.2-3.4v-1.3h-.3c-.5 0-.8 0-1.1-.3-.3-.2-.4-.5-.4-1 0-.2.1-.5.4-.7.2-.3.6-.4 1.1-.4H3v.6H2c-.3 0-.5 0-.6.2l-.3.3c0 .3 0 .4.2.5.1.1.3.2.7.2h1v1.9Zm4 3.4c-.9.1-1.5 0-1.9-.5-.3-.5-.5-1.2-.5-2v-4.6h.8v2.6l.7-.5a3 3 0 0 1 .8 0c.5 0 1 .1 1.3.3a2 2 0 0 1 .8 1c.2.2.3.7.3 1.2 0 .9-.3 1.5-.7 2-.4.4-1 .5-1.7.5Zm-.1-.6c.4 0 .9-.2 1-.4.5-.4.7-.8.7-1.4-.1-.6-.3-1-.6-1.4-.2-.3-.5-.5-1.2-.5-.2 0-.5 0-.7.2-.2.1-.4.3-.5.6-.2.2-.2.5-.2.8v.5c0 .2 0 .6.2.8.1.4.2.5.5.6l.8.2Zm0 0"/>  <path id="a" d="m.5 0 3.3-7.4H4L7.3 0Zm1.1-.7h4.5L4-5.7Zm0 0"/>  <path d="M1 0v-7.1h4V0Zm.4-.5h3.1v-6.1h-3Zm.1 0"/> </defs> <image xlink:href="svg/8/54_14.jpg" width="497" height="279"/> <path d="M3.8 2A1.7 1.7 0 1 1 .3 2a1.7 1.7 0 0 1 3.5 0Zm0 0" style="fill-rule:nonzero;comp-op:darken;fill:#fdfdfc;fill-opacity:1;stroke-width:.5;stroke-linecap:butt;stroke-linejoin:miter;stroke:#424236;stroke-opacity:1;stroke-miterlimit:4" transform="matrix(1,0,0,1,220.721349,92.606385)"/> <path d="m205 90.6 3.1-7.4h.3l3.3 7.3v.1Zm1-.6h4.7l-2.4-5.1ZM214.4 87.2v-1.3h-.4c-.4.1-.7.1-1-.3-.3-.2-.4-.5-.4-.9s.1-.7.4-1l1.1-.1h1v.6h-1.6l-.1.6.1.3.7.2h1v1.9Zm4 3.5c-.8 0-1.4-.2-1.8-.6-.4-.5-.6-1.2-.6-2.1v-4.5h.8V86l.7-.3a3 3 0 0 1 .8 0c.5-.1 1-.1 1.3.1a2 2 0 0 1 .8 1.2c.2.1.3.6.3 1.1 0 .9-.2 1.5-.7 1.9-.3.5-1 .7-1.6.7Zm0-.7c.3 0 .7 0 .9-.5.6-.3.7-.7.7-1.3-.1-.6-.2-1-.5-1.4-.3-.3-.7-.5-1.2-.5-.3 0-.6 0-.8.2-.2.1-.4.3-.5.6l-.2.8v.5c0 .3 0 .6.2.8 0 .3.3.5.5.6l.8.2Zm3.4.6V90h4.9c.7-.1 1.2-.2 1.5-.5.4-.3.6-.8.6-1.5 0-.4-.2-.9-.5-1.2-.3-.3-.7-.5-1.3-.5h-1v-.7h1c.5 0 1 .1 1.3.4.4.1.7.4 1 .8l.1 1.2c.1 1.8-.8 2.6-2.6 2.6Zm8.8 0 3.4-7.4h.1l3.3 7.3v.1Zm1.1-.6h4.5l-2.2-5.1ZM240.6 87.2c-.8 0-1.4-.2-1.8-.5-.3-.3-.5-.7-.5-1.5 0-.6.2-1 .5-1.2.4-.4 1-.5 1.8-.5v.7c-.6 0-1 0-1.2.2-.4.2-.4.6-.4.8 0 .3 0 .6.2.8 0 .1.2.3.4.4l1 .1Zm0 0" style="fill:none;stroke-width:3;stroke-linecap:butt;stroke-linejoin:round;stroke:#fff;stroke-opacity:.6;stroke-miterlimit:10" transform=" rotate(  340 225.056 87.6064) "/> <g style="fill:#222;fill-opacity:1" transform=" rotate(  340 225.056 87.6064) ">  <use xlink:href="#a" x="204.5" y="90.6"/>  <use xlink:href="#b" x="212.2" y="90.6"/>  <use xlink:href="#c" x="221.3" y="90.6"/>  <use xlink:href="#a" x="230.1" y="90.6"/>  <use xlink:href="#d" x="237.9" y="90.6"/> </g></svg>
